packages/foundations/assets/icons/functional/images/environment/moon_24.svg

<svg width="24" height="24" viewBox="0 0 24 24" fill="none" xmlns="http://www.w3.org/2000/svg">
<g clip-path="url(#clip0_185_828)">
<path fill-rule="evenodd" clip-rule="evenodd" d="M12.0813 3.52049L12.485 2.69394C12.6062 2.44581 12.5033 2.14642 12.2552 2.02522C12.1685 1.98286 12.0714 1.96651 11.9756 1.97812L11.0624 2.08886C6.06812 2.6945 2.27319 6.94785 2.27319 12.0206C2.27319 17.5462 6.75256 22.0255 12.2781 22.0255C16.1403 22.0255 19.6064 19.8168 21.272 16.4085L21.6759 15.5818C21.7972 15.3337 21.6943 15.0343 21.4462 14.9131C21.3595 14.8707 21.2624 14.8543 21.1665 14.866L20.2531 14.9767C19.9315 15.0157 19.6062 15.0354 19.2781 15.0354C14.8571 15.0354 11.2732 11.4515 11.2732 7.03045C11.2732 5.79646 11.5519 4.60422 12.0813 3.52049ZM9.60419 4.47152L9.5304 4.76744C9.36041 5.50244 9.27319 6.26049 9.27319 7.03045L9.27704 7.3105C9.41767 12.4275 13.4003 16.5847 18.4438 17.0011L18.5402 17.0075L18.4052 17.1743C16.9135 18.947 14.6928 20.0255 12.2781 20.0255C7.85713 20.0255 4.27319 16.4416 4.27319 12.0206C4.27319 8.66004 6.35553 5.74836 9.33884 4.5715L9.60419 4.47152Z" fill="#1A1C1F"/>
</g>
<defs>
<clipPath id="clip0_185_828">
<rect width="24" height="24" fill="white"/>
</clipPath>
</defs>
</svg>

<svg xmlns="http://www.w3.org/2000/svg" width="24" height="24" fill="none"><g clip-path="url(#a)"><path fill="#1A1C1F" fill-rule="evenodd" d="m12.081 3.52.404-.826a.5.5 0 0 0-.51-.716l-.913.11c-4.994.607-8.789 4.86-8.789 9.933 0 5.525 4.48 10.005 10.005 10.005 3.862 0 7.328-2.21 8.994-5.617l.404-.827a.5.5 0 0 0-.51-.716l-.913.11a8.005 8.005 0 0 1-8.98-7.946 8 8 0 0 1 .808-3.51m-2.477.952-.074.295c-.17.735-.257 1.493-.257 2.263l.004.28c.14 5.118 4.123 9.275 9.167 9.691l.096.006-.135.167A8.005 8.005 0 0 1 4.273 12.02 8.01 8.01 0 0 1 9.34 4.573z" clip-rule="evenodd"/></g><defs><clipPath id="a"><path fill="#fff" d="M0 0h24v24H0z"/></clipPath></defs></svg>
